qml/icons/navigation/arrive-right-white.svg

<svg id="WORKING_ICONS" data-name="WORKING ICONS" xmlns="http://www.w3.org/2000/svg" width="20" height="20" viewBox="0 0 20 20">
  <title>direction</title>
  <path fill="#ffffff" d="M15,10a2,2,0,1,1,2,2A2,2,0,0,1,15,10ZM7,11.05493H8V11.04584a0.35757,0.35757,0,0,1,.37738.54242L7.03363,14.5401a0.3866,0.3866,0,0,0,.62354.40942L14,10.04584,7.65717,5.14215a0.38659,0.38659,0,0,0-.62354.40942L8.37738,8.50342A0.35757,0.35757,0,0,1,8,9.04584V9.05493H7.00818L7.0083,9.03485l-0.011.00183A6.05607,6.05607,0,0,0,1.01385,15H1v1.48767A0.51232,0.51232,0,0,0,1.51233,17H2.48767A0.51232,0.51232,0,0,0,3,16.48767V15.10992H3.0083a4.05782,4.05782,0,0,1,3.98877-4.07324"/>
</svg>

<svg data-name="WORKING ICONS" xmlns="http://www.w3.org/2000/svg" width="20" height="20"><path fill="#fff" d="M15 10a2 2 0 1 1 2 2 2 2 0 0 1-2-2Zm-8 1.055h1v-.01a.358.358 0 0 1 .377.543L7.034 14.54a.387.387 0 0 0 .623.41L14 10.046 7.657 5.142a.387.387 0 0 0-.623.41l1.343 2.951A.358.358 0 0 1 8 9.046v.009h-.992v-.02l-.01.002A6.056 6.056 0 0 0 1.013 15H1v1.488a.512.512 0 0 0 .512.512h.976A.512.512 0 0 0 3 16.488V15.11h.008a4.058 4.058 0 0 1 3.99-4.073"/></svg>
